svg/certificate.svg

<?xml version="1.0" encoding="UTF-8"?>
<svg xmlns="http://www.w3.org/2000/svg" xmlns:xlink="http://www.w3.org/1999/xlink" width="32" height="32" viewBox="0 0 32 32">
<path fill-rule="nonzero" fill="rgb(0%, 0%, 0%)" fill-opacity="1" d="M 16.003906 2.136719 C 15.609375 2.136719 15.21875 2.324219 14.992188 2.707031 L 14.546875 3.449219 C 14.355469 3.769531 14.035156 3.984375 13.675781 4.082031 L 13.667969 4.085938 C 13.304688 4.195312 12.917969 4.152344 12.585938 3.976562 L 11.828125 3.554688 C 11.464844 3.355469 11.027344 3.359375 10.667969 3.566406 C 10.3125 3.769531 10.085938 4.148438 10.078125 4.5625 L 10.0625 5.441406 C 10.050781 5.816406 9.890625 6.171875 9.621094 6.429688 C 9.359375 6.691406 9.011719 6.855469 8.640625 6.863281 L 7.761719 6.875 C 7.347656 6.882812 6.96875 7.109375 6.761719 7.46875 C 6.558594 7.828125 6.554688 8.265625 6.753906 8.628906 L 7.175781 9.390625 C 7.355469 9.71875 7.386719 10.101562 7.289062 10.460938 L 7.28125 10.480469 C 7.1875 10.839844 6.964844 11.148438 6.652344 11.34375 L 5.90625 11.789062 C 5.550781 12.003906 5.335938 12.386719 5.335938 12.800781 C 5.335938 13.210938 5.550781 13.59375 5.90625 13.808594 L 6.652344 14.257812 C 6.96875 14.449219 7.183594 14.765625 7.28125 15.121094 L 7.285156 15.140625 C 7.390625 15.5 7.351562 15.882812 7.175781 16.210938 L 6.753906 16.972656 C 6.554688 17.335938 6.554688 17.773438 6.761719 18.132812 C 6.96875 18.492188 7.347656 18.714844 7.761719 18.722656 L 8.640625 18.738281 C 9.011719 18.742188 9.355469 18.910156 9.621094 19.171875 L 9.625 19.179688 C 9.890625 19.441406 10.054688 19.789062 10.0625 20.160156 L 10.078125 21.039062 C 10.082031 21.453125 10.304688 21.835938 10.664062 22.042969 C 11.023438 22.25 11.464844 22.25 11.824219 22.046875 L 12.585938 21.625 C 12.914062 21.441406 13.296875 21.414062 13.660156 21.515625 L 13.679688 21.519531 C 14.035156 21.613281 14.351562 21.832031 14.542969 22.148438 L 14.988281 22.894531 C 15.203125 23.25 15.585938 23.464844 16 23.464844 C 16.414062 23.464844 16.796875 23.25 17.011719 22.894531 L 17.457031 22.148438 C 17.648438 21.832031 17.964844 21.617188 18.320312 21.519531 L 18.339844 21.515625 C 18.695312 21.410156 19.082031 21.449219 19.410156 21.625 L 20.171875 22.046875 C 20.535156 22.25 20.972656 22.246094 21.332031 22.039062 C 21.691406 21.832031 21.914062 21.453125 21.921875 21.039062 L 21.9375 20.160156 C 21.945312 19.789062 22.109375 19.441406 22.371094 19.179688 L 22.378906 19.171875 C 22.640625 18.910156 22.988281 18.742188 23.359375 18.738281 L 24.238281 18.722656 C 24.652344 18.714844 25.03125 18.492188 25.238281 18.132812 C 25.445312 17.773438 25.445312 17.335938 25.246094 16.972656 L 24.824219 16.210938 C 24.648438 15.882812 24.609375 15.5 24.710938 15.140625 L 24.71875 15.121094 C 24.816406 14.765625 25.03125 14.449219 25.347656 14.257812 L 26.09375 13.808594 C 26.449219 13.597656 26.667969 13.214844 26.667969 12.800781 C 26.667969 12.386719 26.453125 12.003906 26.097656 11.789062 L 25.347656 11.34375 C 25.035156 11.148438 24.808594 10.839844 24.71875 10.480469 L 24.714844 10.460938 C 24.609375 10.101562 24.648438 9.71875 24.828125 9.390625 L 25.25 8.628906 C 25.453125 8.269531 25.449219 7.828125 25.242188 7.46875 C 25.035156 7.109375 24.652344 6.882812 24.238281 6.875 L 23.359375 6.863281 C 22.988281 6.851562 22.636719 6.695312 22.378906 6.429688 L 22.375 6.421875 C 22.105469 6.164062 21.949219 5.8125 21.9375 5.441406 L 21.925781 4.5625 C 21.917969 4.148438 21.695312 3.769531 21.335938 3.5625 C 20.976562 3.355469 20.535156 3.351562 20.171875 3.550781 L 19.414062 3.976562 C 19.085938 4.15625 18.703125 4.1875 18.339844 4.085938 L 18.324219 4.082031 C 17.964844 3.992188 17.65625 3.765625 17.460938 3.453125 L 17.011719 2.707031 C 16.800781 2.351562 16.417969 2.132812 16.003906 2.136719 M 25.785156 20.449219 C 25.320312 20.703125 24.800781 20.84375 24.273438 20.855469 L 24.058594 20.859375 L 24.054688 21.070312 C 24.023438 22.875 22.550781 24.324219 20.742188 24.328125 C 20.179688 24.328125 19.628906 24.1875 19.136719 23.914062 L 18.949219 23.808594 L 18.839844 23.992188 C 18.816406 24.027344 18.785156 24.058594 18.761719 24.09375 L 24.535156 29.867188 L 24.535156 24.535156 L 29.867188 24.535156 Z M 6.214844 20.453125 L 2.132812 24.535156 L 7.464844 24.535156 L 7.464844 29.867188 L 13.238281 24.09375 C 13.214844 24.058594 13.183594 24.03125 13.160156 23.992188 L 13.050781 23.808594 L 12.863281 23.914062 C 12.371094 24.1875 11.820312 24.332031 11.257812 24.332031 C 9.453125 24.328125 7.980469 22.878906 7.945312 21.074219 L 7.9375 20.859375 L 7.726562 20.855469 C 7.199219 20.84375 6.679688 20.707031 6.214844 20.453125 "/>
</svg>

<svg role="img" viewBox="0 0 32 32" xmlns="http://www.w3.org/2000/svg"><path d="M16.004 2.137c-.395 0-.785.187-1.012.57l-.445.742c-.192.32-.512.535-.871.633l-.008.004c-.363.11-.75.066-1.082-.11l-.758-.421a1.18 1.18 0 0 0-1.75 1.007l-.015.88c-.012.374-.172.73-.442.988-.262.261-.61.425-.98.433l-.88.012a1.182 1.182 0 0 0-1.007 1.754l.422.762c.18.328.21.71.113 1.07l-.008.02a1.44 1.44 0 0 1-.629.863l-.746.445a1.18 1.18 0 0 0 0 2.02l.746.449c.317.191.532.508.63.863l.003.02c.106.359.067.742-.11 1.07l-.421.762a1.178 1.178 0 0 0 1.008 1.75l.879.015c.37.004.714.172.98.434l.004.008c.266.261.43.61.438.98l.015.88a1.172 1.172 0 0 0 1.746 1.007l.762-.422c.328-.184.71-.21 1.074-.11l.02.005c.355.093.672.312.863.628l.445.747c.215.355.598.57 1.012.57a1.18 1.18 0 0 0 1.012-.57l.445-.747c.191-.316.508-.53.863-.628l.02-.004a1.42 1.42 0 0 1 1.07.109l.762.422a1.178 1.178 0 0 0 1.75-1.008l.015-.879c.008-.37.172-.719.434-.98l.008-.008c.262-.262.61-.43.98-.434l.88-.015a1.178 1.178 0 0 0 1.007-1.75l-.422-.762a1.44 1.44 0 0 1-.113-1.07l.008-.02c.097-.355.312-.672.629-.863l.746-.45a1.17 1.17 0 0 0 .574-1.007 1.18 1.18 0 0 0-.57-1.012l-.75-.445a1.43 1.43 0 0 1-.63-.864l-.003-.02a1.4 1.4 0 0 1 .113-1.07l.422-.761c.203-.36.2-.8-.008-1.16a1.19 1.19 0 0 0-1.004-.594l-.879-.012a1.43 1.43 0 0 1-.98-.433l-.004-.008a1.42 1.42 0 0 1-.437-.98l-.012-.88a1.18 1.18 0 0 0-.59-1c-.36-.207-.8-.21-1.164-.011l-.758.426c-.328.18-.71.21-1.074.109l-.016-.004a1.43 1.43 0 0 1-.863-.629l-.45-.746a1.16 1.16 0 0 0-1.007-.57m9.781 18.312a3.3 3.3 0 0 1-1.512.406l-.214.004-.004.211a3.318 3.318 0 0 1-4.918 2.844l-.188-.105-.11.183c-.023.035-.054.067-.077.102l5.773 5.773v-5.332h5.332Zm-19.57.004-4.082 4.082h5.332v5.332l5.773-5.773c-.023-.035-.054-.063-.078-.102l-.11-.183-.187.105a3.3 3.3 0 0 1-1.605.418 3.323 3.323 0 0 1-3.313-3.258l-.008-.215-.21-.004a3.3 3.3 0 0 1-1.512-.402" fill="rgb(0%, 0%, 0%)"/></svg>
